X: 196
T: The Girl of the Big House
N:"Moderate" "collected by Cronin"
B:O'Neill's 196
Z:Transcribed by henrik.norbeck@mailbox.swipnet.se
M:6/8
L:1/8
K:D
{G}(F2 D) {A}(G2 E)|AGE .E.D.D|{G}(F2 D) {A}(G2 E)|(AGE) d2 z|
{G}(F2 D) {A}(G2 E)|(AG).E .E.D.D|(D=cA) GFE|{G}(FD).D {F}(ED).D:|
ABA AGF|GAG GFG|ABA cAG|(Ad).d d2 e|
fed cAG|FGF GFE|dcA GFE|{G}(FD).D {F}(ED).D:|


